!!!OTL: Landsknechtorden. / Andere Melodie.
!!!ARE: Europa, Mitteleuropa, Deutschland
!!!SCT: A0416B
!!!TXL: @@DE
!!!YEM: Copyright 1995, estate of Helmut Schaffrath.
**kern	**text
*M4/4	*
*met(c)	*
*clefC4	*
*k[b-]	*
*F:	*
=1	=1
{4r	.
4G	Gott
4G	gnad
4G	dem
=2	=2
4F	Ed-
4F	-len
4B-	Kai-
4c	-ſer
=3	=3
4d	al-
4c	-ſo
(<4B-	from-
8A/L	.
8GJ)	.
=4	=4
2A/	.
2F	-men,
=5	=5
4r}	.
{4G	Ma-
4d	-xi-
4d	-mi-
=6	=6
4B-	-li-
4B-	-a-
4.c	-no
8c	bey
=7	=7
4d	im
4c	iſt
(4.B-	auff-
8c)	.
=8	=8
2d	-kom-
2c	-men
=9	=9
4r}	.
{4B-	Ein
4A	Or-
4G	-den
=10	=10
4c	ʒeucht
4B-	durch
4F	al-
4G	-le
=11	=11
2A/	Land
4r}	.
{4F	Mit
=12	=12
4.B-	Pfeif-
8B-	-fen
4c	vnd
4c	mit
=13	=13
2d	Trommen:
2B-	.
=14	=14
4r	.
4d	Landsknecht
4c	.
4G	ſind
=15	=15
4B-	ſie
4A	ge-
2G}	-nannt.
==	==
!!!GTL: Landsknecht- und Reiterlieder
!!!AGN: Romanze, Ballade, Lied, Kriegslied
!! Werlin 1646 S. 1701
!!!ONB: ESAC (Essen Associative Code) Database: ALTDEU
!!!AMT: simple quadruple
!!!AIN: vox
!!!EED: Helmut Schaffrath
!!!EEV: 1.0
!!!RDF**kern: < = below
!!!URL-scan: https://rosdok.uni-rostock.de/mcrviewer/recordIdentifier/rosdok_ppn738218359/iview2/phys_0590.iview2?x=-495.6391625615763&y=1196.6945812804624&scale=0.4629418472063854&rotation=0&layout=singlePageLayout&logicalDiv=log_0015
!!!ENC: Anna Maria Matuszewska
!!!EEV: 2024/15/03
*-	*-
